communes/881.svg

<?xml version="1.0" encoding="UTF-8" standalone="no"?>
<svg
   xmlns:dc="http://purl.org/dc/elements/1.1/"
   xmlns:cc="http://web.resource.org/cc/"
   xmlns:rdf="http://www.w3.org/1999/02/22-rdf-syntax-ns#"
   xmlns:svg="http://www.w3.org/2000/svg"
   xmlns="http://www.w3.org/2000/svg"
   xmlns:xlink="http://www.w3.org/1999/xlink"
   xmlns:sodipodi="http://sodipodi.sourceforge.net/DTD/sodipodi-0.dtd"
   xmlns:inkscape="http://www.inkscape.org/namespaces/inkscape"
   height="763"
   width="603"
   version="1.0"
   id="svg20"
   sodipodi:version="0.32"
   inkscape:version="0.44.1"
   sodipodi:docname="Rümligen-coat of arms.svg"
   sodipodi:docbase="F:\Mis Documentos\Mis imágenes\Encyclopédie\Escudos de Suiza">
  <metadata
     id="metadata31">
    <rdf:RDF>
      <cc:Work
         rdf:about="">
        <dc:format>image/svg+xml</dc:format>
        <dc:type
           rdf:resource="http://purl.org/dc/dcmitype/StillImage" />
        <dc:date>07-AUG-2006</dc:date>
        <dc:creator>
          <cc:Agent>
            <dc:title>Jérôme BLUM (wagner51)</dc:title>
          </cc:Agent>
        </dc:creator>
        <cc:license
           rdf:resource="http://creativecommons.org/licenses/GPL/2.0/" />
        <dc:coverage />
        <dc:description>Gabarit pour le Projet:Blasons de WIkipédia</dc:description>
        <dc:subject>
          <rdf:Bag>
            <rdf:li>blason suisse modèle gabarit projet blasons</rdf:li>
          </rdf:Bag>
        </dc:subject>
        <dc:language>fr</dc:language>
        <dc:title>Gabrit d'un blason suisse</dc:title>
      </cc:Work>
      <cc:License
         rdf:about="http://creativecommons.org/licenses/GPL/2.0/">
        <cc:permits
           rdf:resource="http://web.resource.org/cc/Reproduction" />
        <cc:permits
           rdf:resource="http://web.resource.org/cc/Distribution" />
        <cc:requires
           rdf:resource="http://web.resource.org/cc/Notice" />
        <cc:permits
           rdf:resource="http://web.resource.org/cc/DerivativeWorks" />
        <cc:requires
           rdf:resource="http://web.resource.org/cc/ShareAlike" />
        <cc:requires
           rdf:resource="http://web.resource.org/cc/SourceCode" />
      </cc:License>
    </rdf:RDF>
  </metadata>
  <defs
     id="defs29">
    <linearGradient
       id="linearGradient2893">
      <stop
         style="stop-color:#ffffff;stop-opacity:0.3137255;"
         offset="0"
         id="stop2895" />
      <stop
         id="stop2897"
         offset="0.19"
         style="stop-color:#ffffff;stop-opacity:0.25098041;" />
      <stop
         style="stop-color:#6b6b6b;stop-opacity:0.1254902;"
         offset="0.60000002"
         id="stop2901" />
      <stop
         style="stop-color:#000000;stop-opacity:0.1254902;"
         offset="1"
         id="stop2899" />
    </linearGradient>
    <linearGradient
       id="linearGradient2955">
      <stop
         style="stop-color:white;stop-opacity:0;"
         offset="0"
         id="stop2965" />
      <stop
         style="stop-color:black;stop-opacity:0.64583331;"
         offset="1"
         id="stop2959" />
    </linearGradient>
    <radialGradient
       inkscape:collect="always"
       xlink:href="#linearGradient2893"
       id="radialGradient3236"
       gradientUnits="userSpaceOnUse"
       gradientTransform="matrix(1.215027,1.531577e-24,1.464684e-23,1.266667,-839.1924,-490.4894)"
       cx="858.04236"
       cy="579.93323"
       fx="858.04236"
       fy="579.93323"
       r="300" />
  </defs>
  <sodipodi:namedview
     inkscape:window-height="682"
     inkscape:window-width="1024"
     inkscape:pageshadow="2"
     inkscape:pageopacity="0.0"
     guidetolerance="10.0"
     gridtolerance="10.0"
     objecttolerance="10.0"
     borderopacity="1.0"
     bordercolor="#666666"
     pagecolor="#ffffff"
     id="base"
     inkscape:zoom="0.48301887"
     inkscape:cx="304.48492"
     inkscape:cy="385.87943"
     inkscape:window-x="-4"
     inkscape:window-y="-4"
     inkscape:current-layer="layer2"
     showgrid="true"
     showguides="true"
     inkscape:guide-bbox="true" />
  <desc
     id="desc22">Coat of Arms of Canton of Freiburg (Fribourg)</desc>
  <g
     inkscape:groupmode="layer"
     id="layer1"
     inkscape:label="Fond écu"
     sodipodi:insensitive="true">
    <path
       id="path1899"
       d="M 1.5,1.49998 L 1.5,460.3679 C 1.5,626.6785 135.81456,761.5 301.49999,761.5 C 467.18543,761.5 601.5,626.6785 601.5,460.3679 L 601.5,1.49998 L 1.5,1.49998 z "
       style="fill:#e20909;fill-opacity:1" />
    <rect
       style="opacity:1;fill:white;fill-opacity:1;fill-rule:evenodd;stroke:black;stroke-width:2.78103137;stroke-miterlimit:4;stroke-dasharray:none;stroke-opacity:1"
       id="rect7275"
       width="600.21899"
       height="380.21896"
       x="1.3905157"
       y="1.3905083" />
  </g>
  <g
     inkscape:groupmode="layer"
     id="layer2"
     inkscape:label="Meubles"
     sodipodi:insensitive="true">
    <path
       sodipodi:type="star"
       style="opacity:1;fill:white;fill-opacity:1;fill-rule:evenodd;stroke:black;stroke-width:3;stroke-miterlimit:4;stroke-dasharray:none;stroke-opacity:1"
       id="path8162"
       sodipodi:sides="6"
       sodipodi:cx="246.36719"
       sodipodi:cy="146.04688"
       sodipodi:r1="168.71458"
       sodipodi:r2="80.994087"
       sodipodi:arg1="0.51305791"
       sodipodi:arg2="1.0366567"
       inkscape:flatsided="false"
       inkscape:rounded="0"
       inkscape:randomized="0"
       d="M 393.35937,228.85937 L 287.60133,215.75905 L 248.14555,314.75209 L 206.61175,216.61278 L 101.15337,231.93959 L 165.3776,146.90061 L 99.375006,63.234378 L 205.13304,76.3347 L 244.58882,-22.658337 L 286.12263,75.480969 L 391.581,60.15416 L 327.35678,145.19314 L 393.35937,228.85937 z "
       transform="matrix(1.010154,0,-7.630434e-3,1.010154,52.24557,413.5367)" />
    <path
       transform="matrix(1.010154,0,-7.630366e-3,1.010154,52.24556,53.53669)"
       d="M 393.35937,228.85937 L 287.60133,215.75905 L 248.14555,314.75209 L 206.61175,216.61278 L 101.15337,231.93959 L 165.3776,146.90061 L 99.375006,63.234378 L 205.13304,76.3347 L 244.58882,-22.658337 L 286.12263,75.480969 L 391.581,60.15416 L 327.35678,145.19314 L 393.35937,228.85937 z "
       inkscape:randomized="0"
       inkscape:rounded="0"
       inkscape:flatsided="false"
       sodipodi:arg2="1.0366567"
       sodipodi:arg1="0.51305791"
       sodipodi:r2="80.994087"
       sodipodi:r1="168.71458"
       sodipodi:cy="146.04688"
       sodipodi:cx="246.36719"
       sodipodi:sides="6"
       id="path8164"
       style="opacity:1;fill:#e20909;fill-opacity:1;fill-rule:evenodd;stroke:black;stroke-width:3;stroke-miterlimit:4;stroke-dasharray:none;stroke-opacity:1"
       sodipodi:type="star" />
  </g>
  <g
     inkscape:groupmode="layer"
     id="layer3"
     inkscape:label="Reflet final"
     style="display:inline"
     sodipodi:insensitive="true">
    <path
       style="fill:url(#radialGradient3236);fill-opacity:1"
       d="M 1.5,1.5 L 1.5,460.3679 C 1.5,626.67854 135.81454,761.5 301.49993,761.5 C 467.1854,761.5 601.5,626.67854 601.5,460.3679 L 601.5,1.5 L 1.5,1.5 z "
       id="path2346" />
  </g>
  <g
     inkscape:groupmode="layer"
     id="layer4"
     inkscape:label="Contour final"
     style="display:inline"
     sodipodi:insensitive="true">
    <path
       style="fill:none;fill-opacity:1;stroke:#000000;stroke-width:3;stroke-miterlimit:4;stroke-dasharray:none;stroke-opacity:1"
       d="M 1.5,1.5 L 1.5,460.36794 C 1.5,626.67854 135.81454,761.5 301.49993,761.5 C 467.1854,761.5 601.5,626.67854 601.5,460.36794 L 601.5,1.5 L 1.5,1.5 z "
       id="path3239" />
  </g>
</svg>

<?xml version="1.0" encoding="UTF-8"?>
<svg version="1.0" viewBox="0 0 603 763" xmlns="http://www.w3.org/2000/svg" xmlns:cc="http://web.resource.org/cc/" xmlns:dc="http://purl.org/dc/elements/1.1/" xmlns:rdf="http://www.w3.org/1999/02/22-rdf-syntax-ns#" xmlns:xlink="http://www.w3.org/1999/xlink">
<metadata>
<rdf:RDF>
<cc:Work rdf:about="">
<dc:format>image/svg+xml</dc:format>
<dc:type rdf:resource="http://purl.org/dc/dcmitype/StillImage"/>
<dc:date>07-AUG-2006</dc:date>
<dc:creator>
<cc:Agent>
<dc:title>Jérôme BLUM (wagner51)</dc:title>
</cc:Agent>
</dc:creator>
<cc:license rdf:resource="http://creativecommons.org/licenses/GPL/2.0/"/>
<dc:coverage/>
<dc:description>Gabarit pour le Projet:Blasons de WIkipédia</dc:description>
<dc:subject>
<rdf:Bag>
<rdf:li>blason suisse modèle gabarit projet blasons</rdf:li>
</rdf:Bag>
</dc:subject>
<dc:language>fr</dc:language>
<dc:title>Gabrit d'un blason suisse</dc:title>
</cc:Work>
<cc:License rdf:about="http://creativecommons.org/licenses/GPL/2.0/">
<cc:permits rdf:resource="http://web.resource.org/cc/Reproduction"/>
<cc:permits rdf:resource="http://web.resource.org/cc/Distribution"/>
<cc:requires rdf:resource="http://web.resource.org/cc/Notice"/>
<cc:permits rdf:resource="http://web.resource.org/cc/DerivativeWorks"/>
<cc:requires rdf:resource="http://web.resource.org/cc/ShareAlike"/>
<cc:requires rdf:resource="http://web.resource.org/cc/SourceCode"/>
</cc:License>
</rdf:RDF>
</metadata>
<defs>
<radialGradient id="a" cx="858.04" cy="579.93" r="300" gradientTransform="matrix(1.215 1.5316e-24 1.4647e-23 1.2667 -839.19 -490.49)" gradientUnits="userSpaceOnUse">
<stop stop-color="#fff" stop-opacity=".31373" offset="0"/>
<stop stop-color="#fff" stop-opacity=".25098" offset=".19"/>
<stop stop-color="#6b6b6b" stop-opacity=".12549" offset=".6"/>
<stop stop-opacity=".12549" offset="1"/>
</radialGradient>
</defs>
<desc>Coat of Arms of Canton of Freiburg (Fribourg)</desc>
<g>
<path d="m1.5 1.5v458.87c0 166.31 134.31 301.13 300 301.13 165.69 0 300-134.82 300-301.13v-458.87h-600z" fill="#e20909"/>
<rect x="1.3905" y="1.3905" width="600.22" height="380.22" fill="#fff" fill-rule="evenodd" stroke="#000" stroke-width="2.781"/>
</g>
<g fill-rule="evenodd" stroke="#000" stroke-width="3">
<path transform="matrix(1.0102 0 -.0076304 1.0102 52.246 413.54)" d="m393.36 228.86-105.76-13.1-39.456 98.993-41.534-98.139-105.46 15.327 64.224-85.039-66.003-83.666 105.76 13.1 39.456-98.993 41.534 98.139 105.46-15.327-64.224 85.039 66.003 83.666z" fill="#fff"/>
<path transform="matrix(1.0102 0 -.0076304 1.0102 52.246 53.537)" d="m393.36 228.86-105.76-13.1-39.456 98.993-41.534-98.139-105.46 15.327 64.224-85.039-66.003-83.666 105.76 13.1 39.456-98.993 41.534 98.139 105.46-15.327-64.224 85.039 66.003 83.666z" fill="#e20909"/>
</g>
<g>
<path d="m1.5 1.5v458.87c0 166.31 134.31 301.13 300 301.13 165.69 0 300-134.82 300-301.13v-458.87h-600z" fill="url(#a)"/>
<path d="m1.5 1.5v458.87c0 166.31 134.31 301.13 300 301.13 165.69 0 300-134.82 300-301.13v-458.87h-600z" fill="none" stroke="#000" stroke-width="3"/>
</g>
</svg>
